X:71
T: D'Fullenhochzeit, S. 38
N: L0031
O: Luxemburg
S: Die Luxemburger Volkslieder lterer Zeit, Luxemburg 1904 posth.]
R: Hochzeitslied]
M: 2/4
L: 1/8
K: G
d | d_Bcd | _BAG
d | d_Bcd | _BAG
B | A2Dd | d2_B
d | _edcd | _BAG

@@@ Tune index: 8125
